src/icons/bizagi.svg

<?xml version="1.0" encoding="UTF-8"?>
<svg xmlns="http://www.w3.org/2000/svg" xmlns:xlink="http://www.w3.org/1999/xlink" width="27.541" height="32" viewBox="0 0 27.541 32" version="1.1">
<g id="surface1">
<path style=" stroke:none;fill-rule:nonzero;fill:rgb(94.117647%,54.509807%,11.372549%);fill-opacity:1;" d="M 13.640625 1.160156 L 13.640625 15.980469 L 1.152344 8.03125 Z M 13.640625 1.160156 "/>
<path style=" stroke:none;fill-rule:nonzero;fill:rgb(57.254905%,78.431374%,17.647059%);fill-opacity:1;" d="M 13.640625 1.160156 L 26.203125 8.03125 L 26.203125 24.007812 L 13.640625 15.980469 Z M 13.640625 1.160156 "/>
<path style=" stroke:none;fill-rule:nonzero;fill:rgb(20%,74.901962%,75.686276%);fill-opacity:1;" d="M 1.152344 8.03125 L 26.203125 24.007812 L 13.640625 30.746094 L 1.152344 24.007812 Z M 1.152344 8.03125 "/>
<path style=" stroke:none;fill-rule:nonzero;fill:rgb(100%,100%,100%);fill-opacity:1;" d="M 26.78125 7.011719 L 14.214844 0.136719 C 13.878906 -0.046875 13.476562 -0.046875 13.140625 0.136719 L 0.578125 7.011719 C 0.234375 7.246094 0 7.585938 0 8.03125 L 0 24.007812 C 0 24.398438 0.234375 24.792969 0.628906 25.03125 L 13.140625 31.796875 C 13.480469 31.980469 13.875 31.980469 14.214844 31.796875 L 26.78125 25.03125 C 27.121094 24.847656 27.410156 24.453125 27.410156 24.007812 L 27.410156 8.03125 C 27.332031 7.5625 27.121094 7.21875 26.78125 7.011719 M 25.074219 21.878906 L 14.792969 15.351562 L 14.792969 3.074219 L 25.023438 8.714844 Z M 12.511719 13.933594 L 3.355469 8.085938 L 12.511719 3.074219 Z M 13.640625 29.460938 L 2.28125 23.324219 L 2.28125 10.078125 L 23.949219 23.902344 Z M 13.640625 29.460938 "/>
</g>
</svg>

<svg role="img" viewBox="0 0 27.541 32" xmlns="http://www.w3.org/2000/svg"><path d="M13.64 1.16v14.82L1.153 8.031Zm0 0" style="stroke:none;fill-rule:nonzero;fill:rgb(94.117647%,54.509807%,11.372549%);fill-opacity:1"/><path d="m13.64 1.16 12.563 6.871v15.977L13.641 15.98Zm0 0" style="stroke:none;fill-rule:nonzero;fill:rgb(57.254905%,78.431374%,17.647059%);fill-opacity:1"/><path d="m1.152 8.031 25.051 15.977-12.562 6.738-12.489-6.738Zm0 0" style="stroke:none;fill-rule:nonzero;fill:rgb(20%,74.901962%,75.686276%);fill-opacity:1"/><path d="M26.781 7.012 14.215.137a1.116 1.116 0 0 0-1.074 0L.578 7.012C.234 7.246 0 7.586 0 8.032v15.976c0 .39.234.785.629 1.023l12.512 6.766c.34.183.734.183 1.074 0L26.78 25.03c.34-.183.63-.578.63-1.023V8.03c-.079-.469-.29-.812-.63-1.02m-1.707 14.87-10.281-6.53V3.074l10.23 5.64Zm-12.562-7.948L3.355 8.086l9.157-5.012ZM13.64 29.46 2.28 23.324V10.078l21.67 13.824Zm0 0" style="stroke:none;fill-rule:nonzero;fill:rgb(100%,100%,100%);fill-opacity:1"/></svg>
